web/ui/src/components/theme/workflow/svgs/normal.svg

<svg height="24" viewBox="0 0 24 24" width="24" xmlns="http://www.w3.org/2000/svg"><g fill="none"><path d="m0 0h24v24h-24z" fill="#000" opacity="0"/><path d="m20.0357143 22h-16.07142858c-1.07142857 0-1.96428572-.8928571-1.96428572-1.9642857v-16.07142858c0-1.07142857.89285715-1.96428572 1.96428572-1.96428572h16.07142858c1.0714286 0 1.9642857.89285715 1.9642857 1.96428572v16.07142858c0 1.0714286-.8928571 1.9642857-1.9642857 1.9642857zm-16.13571429-19c-.504 0-.90000001.39600001-.90000001.90000001v16.19999999c0 .504.39600001.9.90000001.9h16.19999999c.504 0 .9-.396.9-.9v-16.19999999c0-.504-.396-.90000001-.9-.90000001zm11.35118479 2c.2654029 0 .4976304.23222749.4976304.49763033v1.95734598c0 .43127963.3649289.79620853.7962085.79620853h1.957346c.2654028 0 .4976303.2322275.4976303.49763034 0 .26540283-.2322275.49763033-.4976303.49763033h-1.957346c-.9952607 0-1.7914692-.79620853-1.7914692-1.7914692v-1.95734598c0-.26540284.1990521-.49763033.4976303-.49763033zm1.2938389 9.7535545h1.957346c.2654028 0 .4976303.2322275.4976303.4976303 0 .2654029-.2322275.4976304-.4976303.4976304h-1.957346c-.4312796 0-.7962085.3649289-.7962085.7962085v1.957346c0 .2654028-.2322275.4976303-.4976304.4976303-.2654028 0-.4976303-.2322275-.4976303-.4976303v-1.957346c0-.9952607.7962085-1.7914692 1.7914692-1.7914692zm-11.04739337 0h1.95734598c.99526067 0 1.7914692.7962085 1.7914692 1.7914692v1.957346c0 .2654028-.2322275.4976303-.49763033.4976303-.26540284 0-.49763034-.2322275-.49763034-.4976303v-1.957346c0-.4312796-.3649289-.7962085-.79620853-.7962085h-1.95734598c-.26540284 0-.49763033-.2322275-.49763033-.4976304 0-.2654028.23222749-.4976303.49763033-.4976303zm3.25118485-9.7535545c.26540283 0 .49763033.23222749.49763033.49763033v1.95734598c0 .99526067-.79620853 1.7914692-1.7914692 1.7914692h-1.95734598c-.26540284 0-.49763033-.2322275-.49763033-.49763033 0-.26540284.23222749-.49763034.49763033-.49763034h1.95734598c.43127963 0 .79620853-.3649289.79620853-.79620853v-1.95734598c0-.26540284.2322275-.49763033.49763034-.49763033z" fill="#526579" stroke="#526579" stroke-width=".2"/></g></svg>

<?xml version="1.0" encoding="UTF-8"?>
<svg width="24px" height="24px" viewBox="0 0 24 24" version="1.1" xmlns="http://www.w3.org/2000/svg" xmlns:xlink="http://www.w3.org/1999/xlink">
    <title>全屏-缩小</title>
    <g id="页面-1" stroke="none" stroke-width="1" fill="none" fill-rule="evenodd">
        <g id="建木CI-项目详情页（流程/管道图）" transform="translate(-1553.000000, -1079.000000)" fill-rule="nonzero">
            <g id="全屏-缩小" transform="translate(1553.000000, 1079.000000)">
                <rect id="矩形" fill="#000000" opacity="0" x="0" y="0" width="24" height="24"></rect>
                <path d="M20.0357143,22 L3.96428572,22 C2.89285715,22 2,21.1071429 2,20.0357143 L2,3.96428572 C2,2.89285715 2.89285715,2 3.96428572,2 L20.0357143,2 C21.1071429,2 22,2.89285715 22,3.96428572 L22,20.0357143 C22,21.1071429 21.1071429,22 20.0357143,22 Z M3.90000001,3 C3.39600001,3 3,3.39600001 3,3.90000001 L3,20.1 C3,20.604 3.39600001,21 3.90000001,21 L20.1,21 C20.604,21 21,20.604 21,20.1 L21,3.90000001 C21,3.39600001 20.604,3 20.1,3 L3.90000001,3 Z M15.2511848,5 C15.5165877,5 15.7488152,5.23222749 15.7488152,5.49763033 L15.7488152,7.45497631 C15.7488152,7.88625594 16.1137441,8.25118484 16.5450237,8.25118484 L18.5023697,8.25118484 C18.7677725,8.25118484 19,8.48341234 19,8.74881518 C19,9.01421801 18.7677725,9.24644551 18.5023697,9.24644551 L16.5450237,9.24644551 C15.549763,9.24644551 14.7535545,8.45023698 14.7535545,7.45497631 L14.7535545,5.49763033 C14.7535545,5.23222749 14.9526066,5 15.2511848,5 L15.2511848,5 Z M16.5450237,14.7535545 L18.5023697,14.7535545 C18.7677725,14.7535545 19,14.985782 19,15.2511848 C19,15.5165877 18.7677725,15.7488152 18.5023697,15.7488152 L16.5450237,15.7488152 C16.1137441,15.7488152 15.7488152,16.1137441 15.7488152,16.5450237 L15.7488152,18.5023697 C15.7488152,18.7677725 15.5165877,19 15.2511848,19 C14.985782,19 14.7535545,18.7677725 14.7535545,18.5023697 L14.7535545,16.5450237 C14.7535545,15.549763 15.549763,14.7535545 16.5450237,14.7535545 L16.5450237,14.7535545 Z M5.49763033,14.7535545 L7.45497631,14.7535545 C8.45023698,14.7535545 9.24644551,15.549763 9.24644551,16.5450237 L9.24644551,18.5023697 C9.24644551,18.7677725 9.01421801,19 8.74881518,19 C8.48341234,19 8.25118484,18.7677725 8.25118484,18.5023697 L8.25118484,16.5450237 C8.25118484,16.1137441 7.88625594,15.7488152 7.45497631,15.7488152 L5.49763033,15.7488152 C5.23222749,15.7488152 5,15.5165877 5,15.2511848 C5,14.985782 5.23222749,14.7535545 5.49763033,14.7535545 L5.49763033,14.7535545 Z M8.74881518,5 C9.01421801,5 9.24644551,5.23222749 9.24644551,5.49763033 L9.24644551,7.45497631 C9.24644551,8.45023698 8.45023698,9.24644551 7.45497631,9.24644551 L5.49763033,9.24644551 C5.23222749,9.24644551 5,9.01421801 5,8.74881518 C5,8.48341234 5.23222749,8.25118484 5.49763033,8.25118484 L7.45497631,8.25118484 C7.88625594,8.25118484 8.25118484,7.88625594 8.25118484,7.45497631 L8.25118484,5.49763033 C8.25118484,5.23222749 8.48341234,5 8.74881518,5 Z" id="形状" stroke="#526579" stroke-width="0.2" fill="#526579"></path>
            </g>
        </g>
    </g>
</svg>
